svg/u1f33f.svg

<svg viewBox="0 0 128 128" xmlns="http://www.w3.org/2000/svg">
  <path d="M84.5,37.89c0,0-10.95,2.89-26.19,25.75c-11.77,17.65-12.95,31.48-22.8,40.75 c-5.01,4.71-13.09,7.94-13.09,7.94s-6.47-0.15-6.91,0.15c-0.44,0.29-1.73,3.53,0.69,7.51c2,3.29,5.05,4.12,6.08,4.26 c1.03,0.15,2.94-4.27,3.68-4.86c0.74-0.59,9.43-3.93,15.6-10.74c12.65-13.98,12.45-26.11,21.63-42.08 c10.15-17.65,22.66-26.19,22.66-26.19L84.5,37.89z" fill="#5B9821"/>
  <path d="M122.69,3.39c-0.39-0.43-25.34-0.05-38.15,11.52c-15.22,13.74-11.1,32.76-11.1,32.76 s17.77,4.21,31.18-7.93C120.26,25.59,123.08,3.82,122.69,3.39z" fill="#5B9821"/>
  <path d="M72.4,70.49c0.82,0.64,2,1.39,3.69,2.23c9.56,4.78,21.5,2.16,27.35-0.16 c8.13-3.23,20.21-12.95,20.21-13.69c0-0.74-5.5-3.38-13.32-5.71c-7.82-2.33-18.27-2.44-26.21,0.95 c-7.28,3.11-10.67,8.58-12.54,11.86c0,0-2.9,0.46-5,0.82c-3.7,0.63-6.55,1.9-6.55,1.9l-2.85,5.92c0,0,5.81-2.64,8.77-3.28 S72.4,70.49,72.4,70.49z" fill="#5B9821"/>
  <path d="M54.31,8.73c-0.93,0.19-5.33,7.06-8.03,13.63c-2.13,5.17-4.26,18.38-0.45,26.52s8.22,9.68,8.22,9.68 s0.54,2.37,0.48,5.55c-0.03,1.8-0.21,6.76-0.21,6.76l4.35-1.89c0,0,0.29-4.16,0.27-6.18c-0.03-2.13-0.29-4.82-0.29-4.82 s7.19-6.73,7.72-17.18c0.42-8.24-0.46-15.89-5-24.14C57.81,10.23,54.84,8.63,54.31,8.73z" fill="#5B9821"/>
  <path d="M5.8,24.95c-1.08,1.23,1.37,4.33,1.59,11.31c0.17,5.71,1.16,25.05,6.87,34.98 s13.63,12.37,16.17,13.21c2.54,0.85,8.03,0.95,8.03,0.95s2.33,2.01,3.17,4.86c0.85,2.85,1.69,7.08,1.69,7.08l4.02-5.92 c0,0-1.16-4.65-2.33-6.76c-1.16-2.11-1.59-2.85-1.59-2.85s2.57-15.99-1.8-29.17C36.45,37,27.57,31.08,19.33,27.59 S6.54,24.11,5.8,24.95z" fill="#5B9821"/>
  <path d="M50.3,93.01c0,0,1.89-1.15,5.27-1.23c3.11-0.07,5.04,0.51,5.04,0.51s5.81-6.67,12.31-8.58 c6.13-1.8,14.22-3.41,28.47,2.5c14.27,5.92,22.47,11.66,22.37,13.46c-0.11,1.8-14.13,8.22-19.94,10.22 c-5.81,2.01-19.14,6.23-31.64,1.4c-9.93-3.84-12.15-13-12.15-13s-2.3-1.27-4.94-1.12c-4.83,0.26-8.9,3.87-8.9,3.87L50.3,93.01z" fill="#5B9821"/>
  <path d="M77.97,38.72c1.57,0.97,5.5-8.88,9.3-13.42s10.89-9.19,10.15-11.2s-9.09,0.85-14.8,8.24 C76.92,29.74,76.6,37.88,77.97,38.72z" fill="#8DC02C"/>
  <path d="M79.04,63.53c1.14,1.57,6.37-2.17,11.63-3.38c5.41-1.25,11.2,0.51,10.99-2.43 c-0.2-2.78-7.93-3.06-13-1.69C83.59,57.4,77.67,61.62,79.04,63.53z" fill="#8DC02C"/>
  <path d="M50.51,48.58c1.93-0.08,1.27-6.02,1.37-11.63s1.06-14.06-1.06-14.16c-2.11-0.11-3.89,5.47-4.02,12.15 C46.7,40.44,47.97,48.68,50.51,48.58z" fill="#8DC02C"/>
  <path d="M12.14,38.06c-1.27,0.42-0.37,3.38-0.32,4.76c0.32,9.09,3.38,23.15,8.35,29.28 c3.86,4.76,8.24,8.24,11.2,6.13c2.96-2.11-2.67-6.67-5.5-11.2c-4.54-7.29-7.4-16.59-8.88-21.14S14.53,37.26,12.14,38.06z" fill="#8DC02C"/>
  <path d="M67.41,92.04c0.19,2.77,6.21,1.32,12.59,0.69s11.63-1.51,11.38-3.85c-0.23-2.18-7.36-2.41-12.99-2.01 C72.76,87.27,67.24,89.57,67.41,92.04z" fill="#8DC02D"/>
</svg>

<svg viewBox="0 0 128 128" xmlns="http://www.w3.org/2000/svg">
  <defs/>
  <path d="M84.5,37.89 C84.5,37.89 73.55,40.78 58.31,63.64 C46.54,81.29 45.36,95.12 35.51,104.39 C30.5,109.1 22.42,112.33 22.42,112.33 C22.42,112.33 15.95,112.18 15.51,112.48 C15.07,112.77 13.78,116.01 16.2,119.99 C18.2,123.28 21.25,124.11 22.28,124.25 C23.31,124.4 25.22,119.98 25.96,119.39 C26.7,118.8 35.39,115.46 41.56,108.65 C54.21,94.67 54.01,82.54 63.19,66.57 C73.34,48.92 85.85,40.38 85.85,40.38 L84.5,37.89 Z" fill="#5B9821"/>
  <path d="M122.69,3.39 C122.3,2.96 97.35,3.34 84.54,14.91 C69.32,28.65 73.44,47.67 73.44,47.67 C73.44,47.67 91.21,51.88 104.62,39.74 C120.26,25.59 123.08,3.82 122.69,3.39 Z" fill="#5B9821"/>
  <path d="M72.4,70.49 C73.22,71.13 74.4,71.88 76.09,72.72 C85.65,77.5 97.59,74.88 103.44,72.56 C111.57,69.33 123.65,59.61 123.65,58.87 C123.65,58.13 118.15,55.49 110.33,53.16 C102.51,50.83 92.06,50.72 84.12,54.11 C76.84,57.22 73.45,62.69 71.58,65.97 C71.58,65.97 68.68,66.43 66.58,66.79 C62.88,67.42 60.03,68.69 60.03,68.69 L57.18,74.61 C57.18,74.61 62.99,71.97 65.95,71.33 C68.91,70.69 72.4,70.49 72.4,70.49 Z" fill="#5B9821"/>
  <path d="M54.31,8.73 C53.38,8.92 48.98,15.79 46.28,22.36 C44.15,27.53 42.02,40.74 45.83,48.88 C49.64,57.02 54.05,58.56 54.05,58.56 C54.05,58.56 54.59,60.93 54.53,64.11 C54.5,65.91 54.32,70.87 54.32,70.87 L58.67,68.98 C58.67,68.98 58.96,64.82 58.94,62.8 C58.91,60.67 58.65,57.98 58.65,57.98 C58.65,57.98 65.84,51.25 66.37,40.8 C66.79,32.56 65.91,24.91 61.37,16.66 C57.81,10.23 54.84,8.63 54.31,8.73 Z" fill="#5B9821"/>
  <path d="M5.8,24.95 C4.72,26.18 7.17,29.28 7.39,36.26 C7.56,41.97 8.55,61.31 14.26,71.24 C19.97,81.17 27.89,83.61 30.43,84.45 C32.97,85.3 38.46,85.4 38.46,85.4 C38.46,85.4 40.79,87.41 41.63,90.26 C42.48,93.11 43.32,97.34 43.32,97.34 L47.34,91.42 C47.34,91.42 46.18,86.77 45.01,84.66 C43.85,82.55 43.42,81.81 43.42,81.81 C43.42,81.81 45.99,65.82 41.62,52.64 C36.45,37 27.57,31.08 19.33,27.59 C11.09,24.1 6.54,24.11 5.8,24.95 Z" fill="#5B9821"/>
  <path d="M50.3,93.01 C50.3,93.01 52.19,91.86 55.57,91.78 C58.68,91.71 60.61,92.29 60.61,92.29 C60.61,92.29 66.42,85.62 72.92,83.71 C79.05,81.91 87.14,80.3 101.39,86.21 C115.66,92.13 123.86,97.87 123.76,99.67 C123.65,101.47 109.63,107.89 103.82,109.89 C98.01,111.9 84.68,116.12 72.18,111.29 C62.25,107.45 60.03,98.29 60.03,98.29 C60.03,98.29 57.73,97.02 55.09,97.17 C50.26,97.43 46.19,101.04 46.19,101.04 L50.3,93.01 Z" fill="#5B9821"/>
  <path d="M77.97,38.72 C79.54,39.69 83.47,29.84 87.27,25.3 C91.07,20.76 98.16,16.11 97.42,14.1 C96.68,12.09 88.33,14.95 82.62,22.34 C76.92,29.74 76.6,37.88 77.97,38.72 Z" fill="#8DC02C"/>
  <path d="M79.04,63.53 C80.18,65.1 85.41,61.36 90.67,60.15 C96.08,58.9 101.87,60.66 101.66,57.72 C101.46,54.94 93.73,54.66 88.66,56.03 C83.59,57.4 77.67,61.62 79.04,63.53 Z" fill="#8DC02C"/>
  <path d="M50.51,48.58 C52.44,48.5 51.78,42.56 51.88,36.95 C51.98,31.34 52.94,22.89 50.82,22.79 C48.71,22.68 46.93,28.26 46.8,34.94 C46.7,40.44 47.97,48.68 50.51,48.58 Z" fill="#8DC02C"/>
  <path d="M12.14,38.06 C10.87,38.48 11.77,41.44 11.82,42.82 C12.14,51.91 15.2,65.97 20.17,72.1 C24.03,76.86 28.41,80.34 31.37,78.23 C34.33,76.12 28.7,71.56 25.87,67.03 C21.33,59.74 18.47,50.44 16.99,45.89 C15.51,41.34 14.53,37.26 12.14,38.06 Z" fill="#8DC02C"/>
  <path d="M67.41,92.04 C67.6,94.81 73.62,93.36 80,92.73 C86.38,92.1 91.63,91.22 91.38,88.88 C91.15,86.7 84.02,86.47 78.39,86.87 C72.76,87.27 67.24,89.57 67.41,92.04 Z" fill="#8DC02D"/>
</svg>
